storage/app/icons/phosphoricons/duotone/align-center-vertical-duotone.svg

<svg xmlns="http://www.w3.org/2000/svg" fill="currentColor" viewBox="0 0 256 256"><path d="M200 72v112a8 8 0 0 1-8 8h-40a8 8 0 0 1-8-8V72a8 8 0 0 1 8-8h40a8 8 0 0 1 8 8m-96-32H64a8 8 0 0 0-8 8v160a8 8 0 0 0 8 8h40a8 8 0 0 0 8-8V48a8 8 0 0 0-8-8" opacity=".2"/><path d="M224 120h-16V72a16 16 0 0 0-16-16h-40a16 16 0 0 0-16 16v48h-16V48a16 16 0 0 0-16-16H64a16 16 0 0 0-16 16v72H32a8 8 0 0 0 0 16h16v72a16 16 0 0 0 16 16h40a16 16 0 0 0 16-16v-72h16v48a16 16 0 0 0 16 16h40a16 16 0 0 0 16-16v-48h16a8 8 0 0 0 0-16m-120 88H64V48h40Zm88-24h-40V72h40Z"/></svg>

<svg xmlns="http://www.w3.org/2000/svg" viewBox="0 0 256 256" fill="currentColor"><path d="M200,72V184a8,8,0,0,1-8,8H152a8,8,0,0,1-8-8V72a8,8,0,0,1,8-8h40A8,8,0,0,1,200,72ZM104,40H64a8,8,0,0,0-8,8V208a8,8,0,0,0,8,8h40a8,8,0,0,0,8-8V48A8,8,0,0,0,104,40Z" opacity="0.2"/><path d="M224,120H208V72a16,16,0,0,0-16-16H152a16,16,0,0,0-16,16v48H120V48a16,16,0,0,0-16-16H64A16,16,0,0,0,48,48v72H32a8,8,0,0,0,0,16H48v72a16,16,0,0,0,16,16h40a16,16,0,0,0,16-16V136h16v48a16,16,0,0,0,16,16h40a16,16,0,0,0,16-16V136h16a8,8,0,0,0,0-16ZM104,208H64V48h40Zm88-24H152V72h40Z"/></svg>
